Obsidian/actions/22s/task-past-due.svg

<svg height="22" viewBox="0 0 22 22" width="22" xmlns="http://www.w3.org/2000/svg"><g fill="#bebebe"><path d="m11 3a2 2 0 0 0 -2 2h-4c-.554 0-1 .45-1 1v11c0 .55.446 1 1 1h8v-3h-6v-1h6v-1h5v-7c0-.55-.446-1-1-1h-4a2 2 0 0 0 -2-2zm0 1a1 1 0 0 1 1 1 1 1 0 0 1 -1 1 1 1 0 0 1 -1-1 1 1 0 0 1 1-1zm-4 4h8v1h-8zm0 3h8v1h-8z" opacity=".3"/><path d="m14 14v1c0 .28.1.54.28.72l.78.78-.78.78c-.18.18-.28.44-.28.72v1h1c.28 0 .54-.1.72-.28l.78-.78.78.78c.18.18.44.28.72.28h1v-1c0-.28-.1-.54-.28-.72l-.78-.78.78-.78c.18-.18.28-.44.28-.72v-1h-1c-.28 0-.54.1-.72.28l-.78.78-.78-.78c-.18-.18-.44-.28-.72-.28z"/></g></svg>

<svg xmlns="http://www.w3.org/2000/svg" width="22" height="22" version="1.1" viewBox="0 0 22 22">
 <defs>
  <style id="current-color-scheme" type="text/css">
   .ColorScheme-Text { color:#bebebe; } .ColorScheme-Highlight { color:#4285f4; }
  </style>
 </defs>
 <path style="opacity:0.3;fill:currentColor" class="ColorScheme-Text" d="M 11,3 A 2,2 0 0 0 9,5 H 5 C 4.446,5 4,5.45 4,6 v 11 c 0,0.55 0.446,1 1,1 h 8 V 15 H 7 v -1 h 6 v -1 h 5 V 6 C 18,5.45 17.554,5 17,5 H 13 A 2,2 0 0 0 11,3 Z m 0,1 A 1,1 0 0 1 12,5 1,1 0 0 1 11,6 1,1 0 0 1 10,5 1,1 0 0 1 11,4 Z M 7,8 h 8 V 9 H 7 Z m 0,3 h 8 v 1 H 7 Z"/>
 <path style="fill:currentColor" class="ColorScheme-Text" d="m 14,14 v 1 c 0,0.28 0.1,0.54 0.28,0.72 l 0.78,0.78 -0.78,0.78 C 14.1,17.46 14,17.72 14,18 v 1 h 1 c 0.28,0 0.54,-0.1 0.72,-0.28 l 0.78,-0.78 0.78,0.78 C 17.46,18.9 17.72,19 18,19 h 1 v -1 c 0,-0.28 -0.1,-0.54 -0.28,-0.72 L 17.94,16.5 18.72,15.72 C 18.9,15.54 19,15.28 19,15 v -1 h -1 c -0.28,0 -0.54,0.1 -0.72,0.28 L 16.5,15.06 15.72,14.28 C 15.54,14.1 15.28,14 15,14 Z"/>
</svg>
